X: 19024
T: Into A Brighter Day
R: hornpipe
M: 4/4
K: Eminor
|:BcBG ~A2 ^GA|BedB A^G E2|B^c d/c/B eBde|fedf e2 ~e2|
fgfd eBde|fedB AFDA|cded dBGB|1 A2 B/A/^G A4:|2 A2 B/A/^G A3e||
|:dBde g2 ga|ba g/a/b ag e2|fedf edef|
[1~g2fa g3f|eBeg fBfa|gbeg fedB|cded dBGB|A2 A^G A3e:|
[2 ~g2 fa g2 e/f/g|fBfa gegb|ac'ba gefd|~c2 eg dBGB|A2 A^G A4||

